figures-source/3.8.svg

<?xml version="1.0" encoding="utf-8"?>
<svg xmlns="http://www.w3.org/2000/svg" xmlns:xlink="http://www.w3.org/1999/xlink">
	<defs>
		<marker id="Arrow1Lend" orient="auto" refX="0.0" refY="0.0" style="overflow:visible;">
			
              
			<path d="M -10,0.0 L -10.0,-2.0 L 0.0,0.0 L -10.0,2.0 z " id="path3666" style="fill-rule:evenodd;stroke:#000000;stroke-width:1.0px;marker-start:none;"/>
			
            
		</marker>
	</defs>
	<g style="stroke:#000000;fill:#fff">
		<rect height="55.0" id="303" rx="5.0" ry="5.0" style="stroke:#504c4d;stroke-width:3.000000px;fill:#d2d7d5" width="112.38" x="387.127" y="114.0"/>
		<text id="303_text" style="fill:#000000;stroke:#000000;stroke-width:0px;font-family: Geneva;font-size:14px" x="387.127" y="114.0">
			<tspan fill="#000000" font-family="Geneva;" font-size="14.0px" id="303_line1" stroke="#000000" text-align="center" text-anchor="middle" x="443.317" y="148.5">
				master
			</tspan>
		</text>
		<path d="M 443.317,170.5 L 443.317,216.0" id="305" style="marker-start:none;stroke:#000000;stroke-width:3.000000px;marker-end:url(#Arrow1Lend);fill:none"/>
		<rect height="55.0" id="306" rx="5.0" ry="5.0" style="stroke:#504c4d;stroke-width:3.000000px;fill:#d2d7d5" width="112.38" x="565.748" y="321.0"/>
		<text id="306_text" style="fill:#000000;stroke:#000000;stroke-width:0px;font-family: Geneva;font-size:14px" x="565.748" y="321.0">
			<tspan fill="#000000" font-family="Geneva;" font-size="14.0px" id="306_line1" stroke="#000000" text-align="center" text-anchor="middle" x="621.938" y="355.5">
				testing
			</tspan>
		</text>
		<path d="M 621.938,319.5 L 621.938,274.0" id="307" style="marker-start:none;stroke:#000000;stroke-width:3.000000px;marker-end:url(#Arrow1Lend);fill:none"/>
		<rect height="55.0" id="308" rx="5.0" ry="5.0" style="stroke:#272525;stroke-width:3.000000px;fill:#484a49" width="112.38" x="387.127" y="10.5"/>
		<text id="308_text" style="fill:#ffffff;stroke:#ffffff;stroke-width:0px;font-family: Geneva;font-size:14px" x="387.127" y="10.5">
			<tspan fill="#ffffff" font-family="Geneva;" font-size="14.0px" id="308_line1" stroke="#ffffff" text-align="center" text-anchor="middle" x="443.317" y="45.0">
				HEAD
			</tspan>
		</text>
		<path d="M 443.317,67.0 L 443.317,112.5" id="309" style="marker-start:none;stroke:#000000;stroke-width:3.000000px;marker-end:url(#Arrow1Lend);fill:none"/>
		<rect height="55.0" id="312" rx="5.0" ry="5.0" style="stroke:#28502c;stroke-width:3.000000px;fill:#baffb3" width="112.38" x="565.748" y="217.5"/>
		<text id="312_text" style="fill:#000000;stroke:#000000;stroke-width:0px;font-family: Geneva;font-size:14px" x="565.748" y="217.5">
			<tspan fill="#000000" font-family="Courier;" font-size="18.0px" id="312_line1" stroke="#000000" text-align="center" text-anchor="middle" x="621.938" y="254.0">
				c2b9e
			</tspan>
		</text>
		<path d="M 564.248,245.0 L 501.007,245.0" id="313" style="marker-start:none;stroke:#000000;stroke-width:3.000000px;marker-end:url(#Arrow1Lend);fill:none"/>
		<rect height="55.0" id="314" rx="5.0" ry="5.0" style="stroke:#28502c;stroke-width:3.000000px;fill:#baffb3" width="112.38" x="35.0" y="217.5"/>
		<text id="314_text" style="fill:#000000;stroke:#000000;stroke-width:0px;font-family: Geneva;font-size:14px" x="35.0" y="217.5">
			<tspan fill="#000000" font-family="Courier;" font-size="18.0px" id="314_line1" stroke="#000000" text-align="center" text-anchor="middle" x="91.19" y="254.0">
				98ca9
			</tspan>
		</text>
		<rect height="55.0" id="315" rx="5.0" ry="5.0" style="stroke:#28502c;stroke-width:3.000000px;fill:#baffb3" width="112.38" x="208.506" y="217.5"/>
		<text id="315_text" style="fill:#000000;stroke:#000000;stroke-width:0px;font-family: Geneva;font-size:14px" x="208.506" y="217.5">
			<tspan fill="#000000" font-family="Courier;" font-size="18.0px" id="315_line1" stroke="#000000" text-align="center" text-anchor="middle" x="264.696" y="254.0">
				34ac2
			</tspan>
		</text>
		<rect height="55.0" id="316" rx="5.0" ry="5.0" style="stroke:#28502c;stroke-width:3.000000px;fill:#baffb3" width="112.38" x="387.127" y="217.5"/>
		<text id="316_text" style="fill:#000000;stroke:#000000;stroke-width:0px;font-family: Geneva;font-size:14px" x="387.127" y="217.5">
			<tspan fill="#000000" font-family="Courier;" font-size="18.0px" id="316_line1" stroke="#000000" text-align="center" text-anchor="middle" x="443.317" y="254.0">
				f30ab
			</tspan>
		</text>
		<path d="M 385.627,245.0 L 322.386,245.0" id="317" style="marker-start:none;stroke:#000000;stroke-width:3.000000px;marker-end:url(#Arrow1Lend);fill:none"/>
		<path d="M 207.006,245.0 L 148.88,245.0" id="318" style="marker-start:none;stroke:#000000;stroke-width:3.000000px;marker-end:url(#Arrow1Lend);fill:none"/>
	</g>
</svg>

<svg xmlns:rdf="http://www.w3.org/1999/02/22-rdf-syntax-ns#" xmlns="http://www.w3.org/2000/svg" height="368.5" width="646.13" version="1.1" xmlns:cc="http://creativecommons.org/ns#" xmlns:dc="http://purl.org/dc/elements/1.1/">
 <metadata>
  <rdf:RDF>
   <cc:Work rdf:about="">
    <dc:format>image/svg+xml</dc:format>
    <dc:type rdf:resource="http://purl.org/dc/dcmitype/StillImage"/>
    <dc:title/>
   </cc:Work>
  </rdf:RDF>
 </metadata>
 <defs>
  <marker id="Arrow1Lend" refY="0" refX="0" orient="auto">
   <path style="marker-start:none;" d="m-10,0,0-2,10,2-10,2z" fill-rule="evenodd" stroke="#000" stroke-width="1px"/>
  </marker>
 </defs>
 <g transform="translate(-33.5,-9)">
  <rect rx="5" ry="5" height="55" width="112.38" stroke="#504c4d" y="114" x="387.13" stroke-width="3px" fill="#d2d7d5"/>
  <text font-family="Geneva" font-size="14px" stroke="#000000" y="114" x="387.12701" stroke-width="0px" fill="#000000">
   <tspan font-size="14px" fill="#000000" style="text-anchor:middle;text-align:center;" stroke="#000000" y="148.5" x="443.31699" font-family="&apos;Geneva" text-align="center">master</tspan>
  </text>
  <path style="marker-start:none;marker-end:url(#Arrow1Lend);" d="m443.32,170.5,0,45.5" stroke="#000" stroke-width="3px" fill="none"/>
  <rect rx="5" ry="5" height="55" width="112.38" stroke="#504c4d" y="321" x="565.75" stroke-width="3px" fill="#d2d7d5"/>
  <text font-family="Geneva" font-size="14px" stroke="#000000" y="321" x="565.74799" stroke-width="0px" fill="#000000">
   <tspan font-size="14px" fill="#000000" style="text-anchor:middle;text-align:center;" stroke="#000000" y="355.5" x="621.93799" font-family="&apos;Geneva" text-align="center">testing</tspan>
  </text>
  <path style="marker-start:none;marker-end:url(#Arrow1Lend);" d="m621.94,319.5,0-45.5" stroke="#000" stroke-width="3px" fill="none"/>
  <rect rx="5" ry="5" height="55" width="112.38" stroke="#272525" y="10.5" x="387.13" stroke-width="3px" fill="#484a49"/>
  <text font-family="Geneva" font-size="14px" stroke="#ffffff" y="10.5" x="387.12701" stroke-width="0px" fill="#ffffff">
   <tspan font-size="14px" fill="#ffffff" style="text-anchor:middle;text-align:center;" stroke="#ffffff" y="45" x="443.31699" font-family="&apos;Geneva" text-align="center">HEAD</tspan>
  </text>
  <path style="marker-start:none;marker-end:url(#Arrow1Lend);" d="m443.32,67,0,45.5" stroke="#000" stroke-width="3px" fill="none"/>
  <rect rx="5" ry="5" height="55" width="112.38" stroke="#28502c" y="217.5" x="565.75" stroke-width="3px" fill="#baffb3"/>
  <text font-family="Geneva" font-size="14px" stroke="#000000" y="217.5" x="565.74799" stroke-width="0px" fill="#000000">
   <tspan font-size="18px" fill="#000000" style="text-anchor:middle;text-align:center;" stroke="#000000" y="254" x="621.93799" font-family="&apos;Courier" text-align="center">c2b9e</tspan>
  </text>
  <path style="marker-start:none;marker-end:url(#Arrow1Lend);" d="m564.25,245-63.241,0" stroke="#000" stroke-width="3px" fill="none"/>
  <rect rx="5" ry="5" height="55" width="112.38" stroke="#28502c" y="217.5" x="35" stroke-width="3px" fill="#baffb3"/>
  <text font-family="Geneva" font-size="14px" stroke="#000000" y="217.5" x="35" stroke-width="0px" fill="#000000">
   <tspan font-size="18px" fill="#000000" style="text-anchor:middle;text-align:center;" stroke="#000000" y="254" x="91.190002" font-family="&apos;Courier" text-align="center">98ca9</tspan>
  </text>
  <rect rx="5" ry="5" height="55" width="112.38" stroke="#28502c" y="217.5" x="208.51" stroke-width="3px" fill="#baffb3"/>
  <text font-family="Geneva" font-size="14px" stroke="#000000" y="217.5" x="208.506" stroke-width="0px" fill="#000000">
   <tspan font-size="18px" fill="#000000" style="text-anchor:middle;text-align:center;" stroke="#000000" y="254" x="264.69601" font-family="&apos;Courier" text-align="center">34ac2</tspan>
  </text>
  <rect rx="5" ry="5" height="55" width="112.38" stroke="#28502c" y="217.5" x="387.13" stroke-width="3px" fill="#baffb3"/>
  <text font-family="Geneva" font-size="14px" stroke="#000000" y="217.5" x="387.12701" stroke-width="0px" fill="#000000">
   <tspan font-size="18px" fill="#000000" style="text-anchor:middle;text-align:center;" stroke="#000000" y="254" x="443.31699" font-family="&apos;Courier" text-align="center">f30ab</tspan>
  </text>
  <path style="marker-start:none;marker-end:url(#Arrow1Lend);" d="m385.63,245-63.241,0" stroke="#000" stroke-width="3px" fill="none"/>
  <path style="marker-start:none;marker-end:url(#Arrow1Lend);" d="m207.01,245-58.126,0" stroke="#000" stroke-width="3px" fill="none"/>
 </g>
</svg>
